img/service-size-icon__09.svg

<svg width="25" height="13" viewBox="0 0 25 13" fill="none" xmlns="http://www.w3.org/2000/svg">
<path d="M2.44141 5.57508C2.1719 5.57508 1.95312 5.79386 1.95312 6.06336C1.95312 6.33306 2.1719 6.55165 2.44141 6.55165C2.71091 6.55165 2.92969 6.33306 2.92969 6.06336C2.92969 5.79386 2.71091 5.57508 2.44141 5.57508Z" fill="black"/>
<path d="M22.506 5.79599C21.0609 5.82918 19.5869 5.60545 18.1255 5.1309C15.8587 4.39466 13.5113 3.03206 11.274 0.901171C10.7496 0.399539 9.94987 0.357386 9.37614 0.797983L7.71141 2.05225C6.41766 3.04541 4.32396 3.12456 2.94514 2.23231L2.21329 1.75814C1.99795 1.61871 1.71146 1.66964 1.55735 1.87468C0.553131 3.21135 0 4.86807 0 6.53947V10.9462C0 11.2159 0.218582 11.4345 0.488281 11.4345H7.61719C7.88689 11.4345 8.10547 11.2159 8.10547 10.9462V10.7667C9.025 10.9968 10.2936 11.3469 11.8885 11.811C12.0264 11.8411 13.9347 12.4952 16.5438 12.4952C19.4382 12.4952 22.3351 11.7124 24.7391 10.4472C24.8995 10.3629 25 10.1964 25 10.0152V7.94137C25 7.09146 24.0318 5.7609 22.506 5.79599ZM18.211 6.17918C19.6507 6.60528 21.101 6.80536 22.5283 6.77236C23.1813 6.75882 23.7408 7.16108 23.9517 7.72794C18.7126 10.9773 12.7026 8.99575 12.6978 8.99594C11.8776 8.75714 10.4708 8.34745 9.20811 8.02434C10.2861 6.93143 11.5597 7.24214 13.0054 7.59481C14.8132 8.03598 16.7461 8.46475 18.211 6.17918ZM0.976562 6.53947C0.976562 5.22989 1.3649 3.93061 2.07767 2.83388L2.41432 3.05208C4.14619 4.17265 6.67896 4.07576 8.3025 2.8295L9.96742 1.57523C10.1566 1.42989 10.4282 1.44343 10.5997 1.60727C10.6615 1.6664 10.7351 1.73907 10.8673 1.86343L10.4902 2.31261C10.3168 2.51917 10.3439 2.82721 10.5505 3.0004C10.7582 3.17492 11.0662 3.14554 11.2383 2.94031L11.5963 2.51383C11.8195 2.70266 12.0739 2.90903 12.3571 3.1259L11.9864 3.56802C11.813 3.77459 11.8399 4.08262 12.0466 4.256C12.2541 4.42995 12.5618 4.40134 12.7344 4.19573L13.1481 3.70249C13.406 3.88121 13.6803 4.0624 13.9702 4.24284L13.4829 4.82344C13.3095 5.02981 13.3364 5.33785 13.5429 5.51122C13.7508 5.68575 14.0587 5.65637 14.2309 5.45114L14.8241 4.74447C15.5586 5.15131 16.3704 5.53716 17.2478 5.86008C16.1638 7.36001 14.8567 7.0413 13.2368 6.6461C11.3407 6.18337 9.59511 5.8658 8.14342 7.76609C7.43237 7.60625 6.93893 7.52824 6.64062 7.52824H0.976562V6.53947ZM24.0234 9.71692C17.6563 12.9066 12.2433 10.8724 12.1634 10.8739C11.8456 10.7816 7.95383 9.65875 7.61719 9.65875C7.34749 9.65875 7.12891 9.87752 7.12891 10.147V10.4579H0.976562V8.5048H6.64062C7.56416 8.5048 11.5479 9.6782 12.4247 9.9334C12.4298 9.93436 18.0838 11.9958 24.0234 8.80845V9.71692Z" fill="black"/>
<path d="M7.12891 6.06336C7.12891 5.79386 6.91032 5.57508 6.64062 5.57508H4.39453C4.12483 5.57508 3.90625 5.79386 3.90625 6.06336C3.90625 6.33306 4.12483 6.55165 4.39453 6.55165H6.64062C6.91032 6.55165 7.12891 6.33306 7.12891 6.06336Z" fill="black"/>
</svg>

<svg width="25" height="13" fill="none" xmlns="http://www.w3.org/2000/svg"><path d="M2.441 5.575a.488.488 0 100 .977.488.488 0 000-.977z" fill="#000"/><path d="M22.506 5.796a13.19 13.19 0 01-4.38-.665C15.858 4.395 13.51 3.032 11.273.9A1.453 1.453 0 009.376.798L7.711 2.052c-1.293.993-3.387 1.073-4.766.18l-.732-.474a.488.488 0 00-.656.117A7.815 7.815 0 000 6.539v4.407c0 .27.219.489.488.489h7.13c.269 0 .487-.22.487-.489v-.18c.92.23 2.189.58 3.784 1.045.137.03 2.046.684 4.655.684 2.894 0 5.791-.783 8.195-2.048a.488.488 0 00.261-.432V7.941c0-.85-.968-2.18-2.494-2.145zm-4.295.383c1.44.426 2.89.626 4.317.593a1.481 1.481 0 011.424.956c-5.24 3.25-11.25 1.268-11.254 1.268-.82-.239-2.227-.649-3.49-.972 1.078-1.093 2.352-.782 3.797-.43 1.808.442 3.741.87 5.206-1.415zM.977 6.54c0-1.31.388-2.608 1.1-3.705l.337.218c1.732 1.12 4.265 1.024 5.889-.223l1.664-1.254a.49.49 0 01.633.032c.062.06.135.132.267.256l-.377.45a.488.488 0 10.748.627l.358-.426c.223.189.478.395.761.612l-.37.442a.488.488 0 10.747.628l.414-.494c.258.18.532.36.822.54l-.487.581a.488.488 0 10.748.628l.593-.707c.735.407 1.546.793 2.424 1.116-1.084 1.5-2.391 1.181-4.011.786-1.896-.463-3.642-.78-5.094 1.12-.71-.16-1.204-.238-1.502-.238H.977V6.54zm23.046 3.178c-6.367 3.19-11.78 1.155-11.86 1.157-.317-.092-4.21-1.215-4.546-1.215a.488.488 0 00-.488.488v.31H.977V8.506H6.64c.923 0 4.907 1.173 5.784 1.428.005.001 5.659 2.063 11.598-1.125v.909z" fill="#000"/><path d="M7.129 6.063a.488.488 0 00-.488-.488H4.395a.488.488 0 000 .977H6.64c.27 0 .488-.219.488-.489z" fill="#000"/></svg>
